www/images/twitter.svg

<svg width="24" height="24" viewBox="0 0 24 24" fill="none" xmlns="http://www.w3.org/2000/svg">
<path d="M22 5.80021C21.2483 6.1263 20.4534 6.34187 19.64 6.44021C20.4982 5.92753 21.1413 5.12099 21.45 4.17021C20.6436 4.65027 19.7608 4.98851 18.84 5.17021C18.2245 4.50278 17.405 4.05851 16.5098 3.90706C15.6147 3.75562 14.6945 3.90557 13.8938 4.3334C13.093 4.76123 12.4569 5.44274 12.0852 6.27105C11.7135 7.09935 11.6273 8.0276 11.84 8.91021C10.2094 8.82774 8.61444 8.40316 7.15865 7.66407C5.70287 6.92498 4.41885 5.8879 3.39 4.62021C3.02914 5.25038 2.83952 5.96403 2.84 6.69021C2.83872 7.36459 3.00422 8.02883 3.32176 8.62377C3.63929 9.21872 4.09902 9.72592 4.66 10.1002C4.00798 10.0825 3.36989 9.90751 2.8 9.59021V9.64021C2.80489 10.5851 3.13599 11.4993 3.73731 12.2282C4.33864 12.957 5.17326 13.4559 6.1 13.6402C5.74326 13.7488 5.37287 13.806 5 13.8102C4.74189 13.8072 4.48442 13.7838 4.23 13.7402C4.49391 14.553 5.00462 15.2634 5.69107 15.7724C6.37753 16.2814 7.20558 16.5638 8.06 16.5802C6.6172 17.7155 4.83588 18.3351 3 18.3402C2.66574 18.3413 2.33174 18.3213 2 18.2802C3.87443 19.4905 6.05881 20.1329 8.29 20.1302C9.82969 20.1462 11.3571 19.8552 12.7831 19.2743C14.2091 18.6934 15.505 17.8341 16.5952 16.7467C17.6854 15.6593 18.548 14.3656 19.1326 12.9411C19.7172 11.5166 20.012 9.98994 20 8.45021C20 8.28021 20 8.10021 20 7.92021C20.7847 7.33502 21.4615 6.61763 22 5.80021Z" fill="black"/>
</svg>

<svg xmlns="http://www.w3.org/2000/svg" width="24" height="24"><path d="M22 5.8a8.5 8.5 0 0 1-2.36.64 4.13 4.13 0 0 0 1.81-2.27 8.2 8.2 0 0 1-2.61 1 4.1 4.1 0 0 0-7 3.74 11.64 11.64 0 0 1-8.45-4.29 4.16 4.16 0 0 0-.07 4c.32.6.78 1.1 1.34 1.48a4.05 4.05 0 0 1-1.86-.51v.05a4.1 4.1 0 0 0 3.3 4 3.93 3.93 0 0 1-1.87.1 4.11 4.11 0 0 0 3.83 2.84A8.22 8.22 0 0 1 2 18.28a11.57 11.57 0 0 0 6.29 1.85A11.59 11.59 0 0 0 20 8.45v-.53a8.43 8.43 0 0 0 2-2.12Z"/></svg>
